src/icons/outline/thumb-up.svg

<svg width="24" height="24" viewBox="0 0 24 24" fill="none" xmlns="http://www.w3.org/2000/svg">
<path d="M14 10H18.7639C20.2507 10 21.2177 11.5646 20.5528 12.8944L17.0528 19.8944C16.714 20.572 16.0215 21 15.2639 21H11.2462C11.0827 21 10.9198 20.9799 10.7611 20.9403L7 20M14 10V5C14 3.89543 13.1046 3 12 3H11.9045C11.405 3 11 3.40497 11 3.90453C11 4.61883 10.7886 5.31715 10.3923 5.91149L7 11V20M14 10H12M7 20H5C3.89543 20 3 19.1046 3 18V12C3 10.8954 3.89543 10 5 10H7.5" stroke="#374151" stroke-width="2" stroke-linecap="round" stroke-linejoin="round"/>
</svg>

<svg xmlns="http://www.w3.org/2000/svg" fill="none" viewBox="0 0 24 24" stroke="currentColor">
  <path stroke-linecap="round" stroke-linejoin="round" stroke-width="2" d="M14 10h4.764a2 2 0 011.789 2.894l-3.5 7A2 2 0 0115.263 21h-4.017c-.163 0-.326-.02-.485-.06L7 20m7-10V5a2 2 0 00-2-2h-.095c-.5 0-.905.405-.905.905 0 .714-.211 1.412-.608 2.006L7 11v9m7-10h-2M7 20H5a2 2 0 01-2-2v-6a2 2 0 012-2h2.5"/>
</svg>
